src/assets/badge-light.svg

<svg width="150" height="40" viewBox="0 0 150 40" fill="none" xmlns="http://www.w3.org/2000/svg">
<rect width="150" height="40" rx="20" fill="white"/>
<rect x="12" y="8" width="24" height="24" rx="3" fill="#3B82F6"/>
<path d="M18.6398 27.5H21.0398V26.88C21.4198 27.1733 21.8531 27.4 22.3398 27.56C22.8264 27.72 23.3664 27.8 23.9598 27.8C24.9531 27.8 25.8231 27.55 26.5698 27.05C27.3164 26.55 27.8964 25.87 28.3098 25.01C28.7298 24.15 28.9398 23.18 28.9398 22.1C28.9398 21 28.7264 20.0233 28.2998 19.17C27.8798 18.31 27.2864 17.6333 26.5198 17.14C25.7531 16.6467 24.8531 16.4 23.8198 16.4C23.3464 16.4 22.9031 16.4567 22.4898 16.57C22.0831 16.6833 21.7131 16.8467 21.3798 17.06V13.1H18.6398V27.5ZM23.5198 25.38C22.6131 25.38 21.9731 25.08 21.5998 24.48C21.2264 23.8733 21.0398 23.08 21.0398 22.1C21.0398 21.12 21.2231 20.33 21.5898 19.73C21.9631 19.1233 22.5731 18.82 23.4198 18.82C24.0264 18.82 24.5231 18.97 24.9098 19.27C25.3031 19.5633 25.5931 19.96 25.7798 20.46C25.9664 20.9533 26.0598 21.5 26.0598 22.1C26.0598 22.7067 25.9698 23.26 25.7898 23.76C25.6098 24.2533 25.3331 24.6467 24.9598 24.94C24.5864 25.2333 24.1064 25.38 23.5198 25.38Z" fill="black"/>
<path d="M55.6312 25.21C56.6392 25.21 57.5072 24.9907 58.2352 24.552C58.9679 24.1133 59.5302 23.4997 59.9222 22.711C60.3189 21.9223 60.5172 21.0053 60.5172 19.96C60.5172 18.9147 60.3189 17.9977 59.9222 17.209C59.5302 16.4203 58.9679 15.8067 58.2352 15.368C57.5072 14.9293 56.6392 14.71 55.6312 14.71C54.6232 14.71 53.7529 14.9293 53.0202 15.368C52.2922 15.8067 51.7299 16.4203 51.3332 17.209C50.9412 17.9977 50.7452 18.9147 50.7452 19.96C50.7452 21.0053 50.9412 21.9223 51.3332 22.711C51.7299 23.4997 52.2922 24.1133 53.0202 24.552C53.7529 24.9907 54.6232 25.21 55.6312 25.21ZM55.6312 23.418C54.6745 23.404 53.9559 23.0867 53.4752 22.466C52.9992 21.8453 52.7612 21.01 52.7612 19.96C52.7612 18.91 52.9992 18.0677 53.4752 17.433C53.9559 16.7983 54.6745 16.488 55.6312 16.502C56.5925 16.516 57.3112 16.8333 57.7872 17.454C58.2632 18.0747 58.5012 18.91 58.5012 19.96C58.5012 21.01 58.2632 21.8523 57.7872 22.487C57.3112 23.1217 56.5925 23.432 55.6312 23.418ZM61.9006 28.36H63.8186V24.727C64.0659 24.881 64.3389 25 64.6376 25.084C64.9409 25.168 65.2699 25.21 65.6246 25.21C66.3199 25.21 66.9289 25.035 67.4516 24.685C67.9742 24.335 68.3802 23.859 68.6696 23.257C68.9636 22.655 69.1106 21.976 69.1106 21.22C69.1106 20.45 68.9612 19.7663 68.6626 19.169C68.3686 18.567 67.9532 18.0933 67.4166 17.748C66.8799 17.4027 66.2499 17.23 65.5266 17.23C65.1346 17.23 64.7752 17.286 64.4486 17.398C64.1266 17.5053 63.8372 17.6593 63.5806 17.86V17.44H61.9006V28.36ZM65.3166 23.516C64.6819 23.516 64.2339 23.306 63.9726 22.886C63.7112 22.4613 63.5806 21.906 63.5806 21.22C63.5806 20.534 63.7089 19.981 63.9656 19.561C64.2269 19.1363 64.6539 18.924 65.2466 18.924C65.6712 18.924 66.0189 19.029 66.2896 19.239C66.5649 19.4443 66.7679 19.722 66.8986 20.072C67.0292 20.4173 67.0946 20.8 67.0946 21.22C67.0946 21.6447 67.0316 22.032 66.9056 22.382C66.7796 22.7273 66.5859 23.0027 66.3246 23.208C66.0632 23.4133 65.7272 23.516 65.3166 23.516ZM74.1649 25.21C74.8929 25.21 75.5626 25.0187 76.1739 24.636C76.7899 24.2533 77.2402 23.7167 77.5249 23.026L75.6209 22.48C75.3316 23.1147 74.8089 23.432 74.0529 23.432C73.5349 23.432 73.1266 23.2873 72.8279 22.998C72.5339 22.7087 72.3519 22.2933 72.2819 21.752H77.5879C77.6672 20.8373 77.5739 20.0417 77.3079 19.365C77.0419 18.6883 76.6312 18.1633 76.0759 17.79C75.5206 17.4167 74.8462 17.23 74.0529 17.23C73.3062 17.23 72.6459 17.4003 72.0719 17.741C71.4979 18.077 71.0476 18.5507 70.7209 19.162C70.3942 19.7733 70.2309 20.492 70.2309 21.318C70.2309 22.074 70.3966 22.746 70.7279 23.334C71.0639 23.9173 71.5259 24.377 72.1139 24.713C72.7066 25.0443 73.3902 25.21 74.1649 25.21ZM74.1369 18.882C74.5942 18.882 74.9442 18.9963 75.1869 19.225C75.4342 19.4537 75.5929 19.8247 75.6629 20.338H72.3309C72.5316 19.3673 73.1336 18.882 74.1369 18.882ZM78.9494 25H80.8814V21.164C80.8814 20.6927 80.9327 20.3147 81.0354 20.03C81.1427 19.7453 81.2781 19.5307 81.4414 19.386C81.6047 19.2367 81.7797 19.1363 81.9664 19.085C82.1531 19.0337 82.3281 19.008 82.4914 19.008C82.8974 19.008 83.2101 19.099 83.4294 19.281C83.6534 19.463 83.8144 19.6893 83.9124 19.96C84.0104 20.2307 84.0687 20.5013 84.0874 20.772C84.1061 21.038 84.1154 21.2573 84.1154 21.43V25H86.0474V20.758C86.0474 20.632 86.0381 20.4313 86.0194 20.156C86.0007 19.8807 85.9471 19.5773 85.8584 19.246C85.7697 18.91 85.6204 18.588 85.4104 18.28C85.2051 17.972 84.9157 17.7177 84.5424 17.517C84.1691 17.3163 83.6861 17.216 83.0934 17.216C82.5474 17.216 82.0714 17.307 81.6654 17.489C81.2594 17.671 80.9187 17.9137 80.6434 18.217V17.44H78.9494V25ZM90.6665 25H95.1325C96.1639 25 96.9292 24.7177 97.4285 24.153C97.9325 23.5837 98.1845 22.8487 98.1845 21.948C98.1845 21.4627 98.0655 21.017 97.8275 20.611C97.5942 20.2003 97.2419 19.897 96.7705 19.701C97.0692 19.519 97.3025 19.2623 97.4705 18.931C97.6385 18.5997 97.7225 18.2053 97.7225 17.748C97.7225 17.3047 97.6199 16.866 97.4145 16.432C97.2092 15.998 96.8849 15.6387 96.4415 15.354C95.9982 15.0647 95.4172 14.92 94.6985 14.92H90.6665V25ZM92.5985 18.854V16.698H94.6705C95.0345 16.698 95.3122 16.803 95.5035 17.013C95.6949 17.223 95.7905 17.482 95.7905 17.79C95.7905 18.1587 95.6832 18.4293 95.4685 18.602C95.2585 18.77 94.9925 18.854 94.6705 18.854H92.5985ZM92.5985 23.208V20.632H94.9365C95.3799 20.632 95.7112 20.751 95.9305 20.989C96.1545 21.2223 96.2665 21.5187 96.2665 21.878C96.2665 22.284 96.1405 22.6083 95.8885 22.851C95.6412 23.089 95.3239 23.208 94.9365 23.208H92.5985ZM102.395 25.224C102.941 25.224 103.417 25.133 103.823 24.951C104.229 24.769 104.569 24.5263 104.845 24.223V25H106.525V17.44H104.607V21.276C104.607 21.7427 104.553 22.1207 104.446 22.41C104.343 22.6947 104.21 22.9117 104.047 23.061C103.883 23.2057 103.708 23.3037 103.522 23.355C103.335 23.4063 103.16 23.432 102.997 23.432C102.591 23.432 102.276 23.341 102.052 23.159C101.832 22.977 101.674 22.7507 101.576 22.48C101.478 22.2093 101.419 21.941 101.401 21.675C101.382 21.4043 101.373 21.1827 101.373 21.01V17.44H99.4406V21.682C99.4406 21.808 99.4499 22.0087 99.4686 22.284C99.4873 22.5593 99.5409 22.865 99.6296 23.201C99.7183 23.5323 99.8653 23.852 100.071 24.16C100.281 24.468 100.572 24.7223 100.946 24.923C101.319 25.1237 101.802 25.224 102.395 25.224ZM108.467 25H110.399V21.164C110.399 20.6927 110.45 20.3147 110.553 20.03C110.66 19.7453 110.796 19.5307 110.959 19.386C111.122 19.2367 111.297 19.1363 111.484 19.085C111.671 19.0337 111.846 19.008 112.009 19.008C112.415 19.008 112.728 19.099 112.947 19.281C113.171 19.463 113.332 19.6893 113.43 19.96C113.528 20.2307 113.586 20.5013 113.605 20.772C113.624 21.038 113.633 21.2573 113.633 21.43V25H115.565V20.758C115.565 20.632 115.556 20.4313 115.537 20.156C115.518 19.8807 115.465 19.5773 115.376 19.246C115.287 18.91 115.138 18.588 114.928 18.28C114.723 17.972 114.433 17.7177 114.06 17.517C113.687 17.3163 113.204 17.216 112.611 17.216C112.065 17.216 111.589 17.307 111.183 17.489C110.777 17.671 110.436 17.9137 110.161 18.217V17.44H108.467V25ZM120.311 25.21C120.726 25.21 121.104 25.154 121.445 25.042C121.785 24.93 122.089 24.7713 122.355 24.566V25H124.035V14.92H122.117V17.692C121.883 17.5427 121.622 17.4283 121.333 17.349C121.048 17.2697 120.74 17.23 120.409 17.23C119.685 17.23 119.055 17.4027 118.519 17.748C117.982 18.0933 117.564 18.567 117.266 19.169C116.972 19.7663 116.825 20.45 116.825 21.22C116.825 21.976 116.969 22.655 117.259 23.257C117.553 23.859 117.961 24.335 118.484 24.685C119.006 25.035 119.615 25.21 120.311 25.21ZM120.619 23.516C120.208 23.516 119.872 23.4133 119.611 23.208C119.349 23.0027 119.156 22.7273 119.03 22.382C118.904 22.032 118.841 21.6447 118.841 21.22C118.841 20.8 118.906 20.4173 119.037 20.072C119.167 19.722 119.368 19.4443 119.639 19.239C119.914 19.029 120.264 18.924 120.689 18.924C121.286 18.924 121.713 19.1363 121.97 19.561C122.226 19.981 122.355 20.534 122.355 21.22C122.355 21.906 122.224 22.4613 121.963 22.886C121.706 23.306 121.258 23.516 120.619 23.516ZM126.135 25H128.039V14.71H126.135V25ZM133.651 25.21C134.379 25.21 135.049 25.0187 135.66 24.636C136.276 24.2533 136.727 23.7167 137.011 23.026L135.107 22.48C134.818 23.1147 134.295 23.432 133.539 23.432C133.021 23.432 132.613 23.2873 132.314 22.998C132.02 22.7087 131.838 22.2933 131.768 21.752H137.074C137.154 20.8373 137.06 20.0417 136.794 19.365C136.528 18.6883 136.118 18.1633 135.562 17.79C135.007 17.4167 134.333 17.23 133.539 17.23C132.793 17.23 132.132 17.4003 131.558 17.741C130.984 18.077 130.534 18.5507 130.207 19.162C129.881 19.7733 129.717 20.492 129.717 21.318C129.717 22.074 129.883 22.746 130.214 23.334C130.55 23.9173 131.012 24.377 131.6 24.713C132.193 25.0443 132.877 25.21 133.651 25.21ZM133.623 18.882C134.081 18.882 134.431 18.9963 134.673 19.225C134.921 19.4537 135.079 19.8247 135.149 20.338H131.817C132.018 19.3673 132.62 18.882 133.623 18.882Z" fill="black"/>
</svg>

<svg width="150" height="40" fill="none" xmlns="http://www.w3.org/2000/svg"><rect width="150" height="40" rx="20" fill="#fff"/><rect x="12" y="8" width="24" height="24" rx="6" fill="url(#a)"/><path d="M24.96 27.3c-1.074 0-1.97-.25-2.69-.75s-1.264-1.18-1.63-2.04c-.36-.86-.54-1.83-.54-2.91s.18-2.05.54-2.91c.36-.86.89-1.54 1.59-2.04.7-.5 1.563-.75 2.59-.75 1.033 0 1.933.247 2.7.74a4.93 4.93 0 0 1 1.78 2.03c.426.853.64 1.83.64 2.93 0 1.08-.21 2.05-.63 2.91-.414.86-.994 1.54-1.74 2.04-.747.5-1.617.75-2.61.75Zm-5.32-.3V12.6h2.74v7h-.34V27h-2.4Zm4.88-2.12c.586 0 1.066-.147 1.44-.44a2.59 2.59 0 0 0 .83-1.18c.18-.5.27-1.053.27-1.66 0-.6-.094-1.147-.28-1.64a2.561 2.561 0 0 0-.87-1.19c-.387-.3-.884-.45-1.49-.45-.567 0-1.027.137-1.38.41-.347.273-.6.657-.76 1.15-.16.493-.24 1.067-.24 1.72s.08 1.227.24 1.72c.16.493.42.877.78 1.15.366.273.853.41 1.46.41Z" fill="#fff"/><path d="M55.631 25.21c1.008 0 1.876-.22 2.604-.658a4.353 4.353 0 0 0 1.687-1.841c.397-.789.595-1.706.595-2.751s-.198-1.962-.595-2.751a4.353 4.353 0 0 0-1.687-1.841c-.728-.439-1.596-.658-2.604-.658s-1.878.22-2.61.658a4.413 4.413 0 0 0-1.688 1.841c-.392.789-.588 1.706-.588 2.751s.196 1.962.588 2.751a4.413 4.413 0 0 0 1.687 1.841c.733.439 1.603.658 2.611.658Zm0-1.792c-.956-.014-1.675-.331-2.156-.952-.476-.62-.714-1.456-.714-2.506 0-1.05.238-1.892.714-2.527.48-.635 1.2-.945 2.156-.931.962.014 1.68.331 2.156.952.476.62.714 1.456.714 2.506 0 1.05-.238 1.892-.714 2.527-.476.635-1.194.945-2.156.931Zm6.27 4.942h1.918v-3.633c.247.154.52.273.819.357.303.084.632.126.987.126.695 0 1.304-.175 1.827-.525.522-.35.928-.826 1.218-1.428.294-.602.44-1.281.44-2.037 0-.77-.149-1.454-.447-2.051a3.451 3.451 0 0 0-1.246-1.421c-.537-.345-1.167-.518-1.89-.518-.392 0-.752.056-1.078.168a2.869 2.869 0 0 0-.868.462v-.42H61.9v10.92Zm3.416-4.844c-.635 0-1.083-.21-1.344-.63-.262-.425-.392-.98-.392-1.666 0-.686.128-1.239.385-1.659.26-.425.688-.637 1.28-.637.425 0 .773.105 1.044.315.275.205.478.483.609.833.13.345.196.728.196 1.148 0 .425-.063.812-.19 1.162-.125.345-.32.62-.58.826-.262.205-.598.308-1.008.308Zm8.848 1.694c.728 0 1.398-.191 2.009-.574a3.344 3.344 0 0 0 1.35-1.61l-1.903-.546c-.29.635-.812.952-1.568.952-.518 0-.926-.145-1.225-.434-.294-.29-.476-.705-.546-1.246h5.306c.08-.915-.014-1.71-.28-2.387s-.677-1.202-1.232-1.575c-.555-.373-1.23-.56-2.023-.56-.747 0-1.407.17-1.981.511a3.542 3.542 0 0 0-1.351 1.421c-.327.611-.49 1.33-.49 2.156 0 .756.166 1.428.497 2.016a3.675 3.675 0 0 0 1.386 1.379c.593.331 1.276.497 2.05.497Zm-.028-6.328c.457 0 .807.114 1.05.343.247.229.406.6.476 1.113H72.33c.2-.97.803-1.456 1.806-1.456ZM78.949 25h1.932v-3.836c0-.471.052-.85.154-1.134.108-.285.243-.5.406-.644.164-.15.339-.25.525-.301.187-.051.362-.077.525-.077.406 0 .72.091.938.273.224.182.385.408.483.679.098.27.157.541.175.812.02.266.028.485.028.658V25h1.932v-4.242c0-.126-.009-.327-.028-.602a4.808 4.808 0 0 0-.16-.91 3.124 3.124 0 0 0-.449-.966 2.358 2.358 0 0 0-.868-.763c-.373-.2-.856-.301-1.449-.301-.546 0-1.022.091-1.428.273a3.037 3.037 0 0 0-1.022.728v-.777H78.95V25Zm11.718 0h4.465c1.032 0 1.797-.282 2.296-.847.505-.57.757-1.304.757-2.205 0-.485-.12-.931-.358-1.337-.233-.41-.585-.714-1.056-.91.298-.182.531-.439.7-.77.167-.331.251-.726.251-1.183a3.05 3.05 0 0 0-.307-1.316 2.59 2.59 0 0 0-.974-1.078c-.443-.29-1.024-.434-1.743-.434h-4.031V25Zm1.931-6.146v-2.156h2.073c.363 0 .641.105.832.315.192.21.287.469.287.777 0 .369-.107.64-.322.812-.21.168-.475.252-.797.252h-2.073Zm0 4.354v-2.576h2.338c.444 0 .775.119.994.357.224.233.336.53.336.889 0 .406-.126.73-.378.973-.247.238-.564.357-.952.357h-2.338Zm9.797 2.016c.546 0 1.022-.091 1.428-.273a3.044 3.044 0 0 0 1.022-.728V25h1.68v-7.56h-1.918v3.836c0 .467-.054.845-.161 1.134-.103.285-.236.502-.399.651a1.324 1.324 0 0 1-.525.294 1.99 1.99 0 0 1-.525.077c-.406 0-.721-.091-.945-.273a1.548 1.548 0 0 1-.476-.679 2.945 2.945 0 0 1-.175-.805 9.817 9.817 0 0 1-.028-.665v-3.57h-1.932v4.242c0 .126.009.327.028.602.018.275.072.581.16.917.09.331.236.651.442.959.21.308.501.562.875.763.373.2.856.301 1.449.301Zm6.072-.224h1.932v-3.836c0-.471.051-.85.154-1.134.107-.285.243-.5.406-.644.163-.15.338-.25.525-.301a1.99 1.99 0 0 1 .525-.077c.406 0 .719.091.938.273.224.182.385.408.483.679.098.27.156.541.175.812.019.266.028.485.028.658V25h1.932v-4.242c0-.126-.009-.327-.028-.602a4.808 4.808 0 0 0-.161-.91 3.131 3.131 0 0 0-.448-.966 2.358 2.358 0 0 0-.868-.763c-.373-.2-.856-.301-1.449-.301-.546 0-1.022.091-1.428.273a3.034 3.034 0 0 0-1.022.728v-.777h-1.694V25Zm11.844.21a3.62 3.62 0 0 0 1.134-.168c.34-.112.644-.27.91-.476V25h1.68V14.92h-1.918v2.772a2.848 2.848 0 0 0-.784-.343 3.436 3.436 0 0 0-.924-.119c-.724 0-1.354.173-1.89.518a3.493 3.493 0 0 0-1.253 1.421c-.294.597-.441 1.281-.441 2.051 0 .756.144 1.435.434 2.037a3.555 3.555 0 0 0 1.225 1.428c.522.35 1.131.525 1.827.525Zm.308-1.694c-.411 0-.747-.103-1.008-.308a1.807 1.807 0 0 1-.581-.826 3.41 3.41 0 0 1-.189-1.162c0-.42.065-.803.196-1.148.13-.35.331-.628.602-.833.275-.21.625-.315 1.05-.315.597 0 1.024.212 1.281.637.256.42.385.973.385 1.659s-.131 1.241-.392 1.666c-.257.42-.705.63-1.344.63ZM126.135 25h1.904V14.71h-1.904V25Zm7.516.21c.728 0 1.398-.191 2.009-.574a3.34 3.34 0 0 0 1.351-1.61l-1.904-.546c-.289.635-.812.952-1.568.952-.518 0-.926-.145-1.225-.434-.294-.29-.476-.705-.546-1.246h5.306c.08-.915-.014-1.71-.28-2.387s-.676-1.202-1.232-1.575c-.555-.373-1.229-.56-2.023-.56-.746 0-1.407.17-1.981.511a3.544 3.544 0 0 0-1.351 1.421c-.326.611-.49 1.33-.49 2.156 0 .756.166 1.428.497 2.016a3.675 3.675 0 0 0 1.386 1.379c.593.331 1.277.497 2.051.497Zm-.028-6.328c.458 0 .808.114 1.05.343.248.229.406.6.476 1.113h-3.332c.201-.97.803-1.456 1.806-1.456Z" fill="#000"/><defs><linearGradient id="a" x1="24" y1="8" x2="24" y2="32" gradientUnits="userSpaceOnUse"><stop offset=".161" stop-color="#3B82F6"/><stop offset="1" stop-color="#262BA3"/></linearGradient></defs></svg>
